src/assets/vectors/fa-bars-solid.svg

<svg width="20" height="18" viewBox="0 0 20 18" fill="none" xmlns="http://www.w3.org/2000/svg">
    <path d="M0.714286 3.14869H19.2857C19.6802 3.14869 20 2.83544 20 2.44898V0.699708C20 0.313251 19.6802 0 19.2857 0H0.714286C0.319777 0 0 0.313251 0 0.699708V2.44898C0 2.83544 0.319777 3.14869 0.714286 3.14869ZM0.714286 10.1458H19.2857C19.6802 10.1458 20 9.83252 20 9.44606V7.69679C20 7.31034 19.6802 6.99708 19.2857 6.99708H0.714286C0.319777 6.99708 0 7.31034 0 7.69679V9.44606C0 9.83252 0.319777 10.1458 0.714286 10.1458ZM0.714286 17.1429H19.2857C19.6802 17.1429 20 16.8296 20 16.4431V14.6939C20 14.3074 19.6802 13.9942 19.2857 13.9942H0.714286C0.319777 13.9942 0 14.3074 0 14.6939V16.4431C0 16.8296 0.319777 17.1429 0.714286 17.1429Z"
          fill="#364048"/>
</svg>

<svg xmlns="http://www.w3.org/2000/svg" width="20" height="18" viewBox="0 0 20 18" fill="none"><path d="M.714 3.15h18.57c.395 0 .714-.313.714-.7V.7c0-.386-.32-.7-.714-.7H.714C.32 0 0 .313 0 .7v1.75c0 .386.32.7.714.7zm0 6.997h18.57c.395 0 .714-.313.714-.7v-1.75c0-.386-.32-.7-.714-.7H.714c-.395 0-.714.313-.714.7v1.75c0 .386.32.7.714.7zm0 6.997h18.57c.395 0 .714-.313.714-.7v-1.75c0-.386-.32-.7-.714-.7H.714c-.395 0-.714.313-.714.7v1.75c0 .386.32.7.714.7z" fill="#364048"/></svg>
